X:1
T:Donna sel cor legasti
T:Felice Anerio
T:Source : Canzonette a la Romana---Venetia---Ang.Gardano---1601. Editor : André Vierendeels (28/01/17).
T:Notes : Original clefs : C1, C1, F4 Editorial accidentals above the staff
T:Donna sel cor legasti
T:©
T:©
C:Felice Anerio
Z:©
%%score [ 1 2 3 ]
L:1/8
Q:1/4=97
M:4/4
K:F
V:1 treble nm="Soprano 1" snm="S 1"
V:2 treble nm="Soprano 2" snm="S 2"
V:3 bass nm="Bass" snm="B"
V:1
"^1)" d8 | d6 d2 | f2 e4 d2- | d2 ^cB c4 | d4 z2 d2 | c2 A2 B2 B2 | AGFE DCDE | FG A3 G G2- | %8
w: Don-|na, sel|cor le- ga-||sti, col|tuo bel crin au-|ra- * * * * * * *||
w: Se|mi pia-|ga- sti l'al-||ma, con|le guan- cie di|fio- * * * * * * *||
 G2 ^FE F4 | G8 :: z4 d4 | _e3 f e2 c2 | d4 d4- | d2 c4 B2 | A2 B4 A2 | B8 | z4 f4 | g6 f2 | e8 | %19
w: |to,|per|qual ca- gion piu|strin- go'un|_ ch'e le-|ga- * *|to,|ahi|du- ro|sta-|
w: |ri,|per|qual ca- gion ag-|gi- on-|* gi'al fo-|co'ar- do _|ri,|con|piu do-|lo-|
 d8 | =B8 | c6 B2 | A8 | G8 :| %24
w: to,|ahi|du- ro|sta-|to.|
w: ri,|con|piu do-|lo-|ri.|
V:2
"^2)""^1)" =B8 | =B4 B4 | d2 c2 A3 G/F/ | E2 D2 E4 | ^F8 | z4 d4 | c2 A2 B2 B2 | AGFE ^F2 G2 | A8 | %9
w: Don-|na, sel|cor le- ga- * *||sti,|col|tuo bel crin au-|ra- * * * * *||
w: Se|m'in- fiam-|ma- st'il pet- * *||to,|con|gl'oc- chi tuoi lu-|cen- * * * * *||
 G8 :: z4 B4 | B2 B2 c2 A2 | B4 B4- | B2 A4 G2 | c8 | d8 | z4 d4 | =B2 c2 d4- | d4 ^c4 | d8 | %20
w: to,|per|qual ca- gion piu|strin- go'un|_ ch'e le-|ga-|to,|ahi|du- ro sta-||to,|
w: ti,|per|qual ca- gion piu|di fe-|* rir- mi|ten-|ti,|con|tai tor- men-||ti,|
 z4 G4 | E2 F2 G4- |"^#" G2 FE F4 | G8 :| %24
w: ahi|du- ro sta-||to.|
w: con|tai tor- men-||ti.|
V:3
"^3)""^1)""^4)" G,8 | G,4 G,4 | D,2 E,2 F,3 G, | A,8 | D,4 D,4 | F,2 F,2 B,,C,D,E, | %6
w: Don-|na, sel|cor le- ga- *||sti, col|tuo bel crin _ _ _|
w: Hor|strin- gi,|au- ven- ta, ac-|cen-|di, il|no- d'il dar- * * *|
 F,2 F,,2 G,,A,,B,,C, | D,8- | D,8 | G,,8 :: z4 G,4 | _E,3 D, C,2 F,2 | B,,4 D,4 | F,4 G,4 | F,8 | %15
w: _ au- ra- * * *|||to,|per|qual ca- gion piu|strin- go'un|ch'e le-|ga|
w: * do'il fo- * * *|||co.|ch'o-|gni pe- na per|te mi|sem- bra'un|gio-|
 B,,8 | D,8 | E,4 F,4 | G,4 A,4 | D,8 | G,,8 | A,,4 B,,4 | C,4 D,4 | G,,8 :| %24
w: to,|ahi|du- ro|sta- *|to,|ahi|du- ro|sta- *|to.|
w: co,|e|du- ro|po- *|co,|e|du- ro|po- *|co.|

